material/.icons/material/flask-empty-off-outline.svg

<svg xmlns="http://www.w3.org/2000/svg" viewBox="0 0 24 24"><path d="M22.1 21.5L2.4 1.7 1.1 3l6.8 6.8-4.4 7.6c-.3.4-.5 1-.5 1.6 0 1.7 1.3 3 3 3h12c.6 0 1.2-.2 1.6-.5l1.2 1.2 1.3-1.2M18 20H6c-.6 0-1-.4-1-1 0-.2.1-.4.2-.6l4.2-7.2L18 20c.1 0 0 0 0 0M11 7.8l-3-3V4c0-1.1.9-2 2-2h4c1.1 0 2 .9 2 2v1c0 .6-.4 1-1 1v1.8l5.4 9.4-5.4-5.4-2-3.4V4h-2v3.8z"/></svg>

<?xml version="1.0" encoding="UTF-8"?><!DOCTYPE svg PUBLIC "-//W3C//DTD SVG 1.1//EN" "http://www.w3.org/Graphics/SVG/1.1/DTD/svg11.dtd"><svg xmlns="http://www.w3.org/2000/svg" xmlns:xlink="http://www.w3.org/1999/xlink" version="1.1" id="mdi-flask-empty-off-outline" width="24" height="24" viewBox="0 0 24 24"><path d="M22.1 21.5L2.4 1.7L1.1 3L7.9 9.8L3.5 17.4C3.2 17.8 3 18.4 3 19C3 20.7 4.3 22 6 22H18C18.6 22 19.2 21.8 19.6 21.5L20.8 22.7L22.1 21.5M18 20H6C5.4 20 5 19.6 5 19C5 18.8 5.1 18.6 5.2 18.4L9.4 11.2L18 20C18.1 20 18 20 18 20M11 7.8L8 4.8V4C8 2.9 8.9 2 10 2H14C15.1 2 16 2.9 16 4V5C16 5.6 15.6 6 15 6V7.8L20.4 17.2L15 11.8L13 8.4V4H11V7.8Z" /></svg>
